packages/dnb-eufemia/assets/icons/first_aid.svg

<svg width="16" height="16" viewBox="0 0 16 16" fill="none" xmlns="http://www.w3.org/2000/svg">
<path d="M8 7.48733V9.48733M8 11.4873V9.48733M8 9.48733H6M8 9.48733H10M5 4.5H3C1.89543 4.5 1 5.39543 1 6.5V12.5C1 13.6046 1.89543 14.5 3 14.5H13C14.1046 14.5 15 13.6046 15 12.5V6.5C15 5.39543 14.1046 4.5 13 4.5H11M5 4.5V2.5C5 1.94772 5.44772 1.5 6 1.5H10C10.5523 1.5 11 1.94772 11 2.5V4.5M5 4.5H11" stroke="black" stroke-width="1.5" stroke-linecap="round" stroke-linejoin="round"/>
</svg>

<svg width="16" height="16" viewBox="0 0 16 16" fill="none" xmlns="http://www.w3.org/2000/svg"><path d="M8 7.487v2m0 2v-2m0 0H6m2 0h2M5 4.5H3a2 2 0 0 0-2 2v6a2 2 0 0 0 2 2h10a2 2 0 0 0 2-2v-6a2 2 0 0 0-2-2h-2m-6 0v-2a1 1 0 0 1 1-1h4a1 1 0 0 1 1 1v2m-6 0h6" stroke="#000" stroke-width="1.5" stroke-linecap="round" stroke-linejoin="round"/></svg>
